svgs/regular/location-check.svg

<svg xmlns="http://www.w3.org/2000/svg" viewBox="0 0 384 512"><!--! Font Awesome Pro 6.3.0 by @fontawesome - https://fontawesome.com License - https://fontawesome.com/license (Commercial License) Copyright 2023 Fonticons, Inc. --><path d="M336 192c0-79.5-64.5-144-144-144S48 112.5 48 192c0 12.4 4.5 31.6 15.3 57.2c10.5 24.8 25.4 52.2 42.5 79.9c28.5 46.2 61.5 90.8 86.2 122.6c24.8-31.8 57.8-76.4 86.2-122.6c17.1-27.7 32-55.1 42.5-79.9C331.5 223.6 336 204.4 336 192zm48 0c0 87.4-117 243-168.3 307.2c-12.3 15.3-35.1 15.3-47.4 0C117 435 0 279.4 0 192C0 86 86 0 192 0S384 86 384 192zm-79-23L177 297c-9.4 9.4-24.6 9.4-33.9 0L79 233c-9.4-9.4-9.4-24.6 0-33.9s24.6-9.4 33.9 0l47 47L271 135c9.4-9.4 24.6-9.4 33.9 0s9.4 24.6 0 33.9z"/></svg>

<svg xmlns="http://www.w3.org/2000/svg" viewBox="0 0 384 512"><!--! Font Awesome Pro 6.2.0 by @fontawesome - https://fontawesome.com License - https://fontawesome.com/license (Commercial License) Copyright 2022 Fonticons, Inc. --><path d="M176.1 272.1C167.6 282.3 152.4 282.3 143 272.1L87.03 216.1C77.66 207.6 77.66 192.4 87.03 183C96.4 173.7 111.6 173.7 120.1 183L160 222.1L255 127C264.4 117.7 279.6 117.7 288.1 127C298.3 136.4 298.3 151.6 288.1 160.1L176.1 272.1zM384 192C384 279.4 267 435 215.7 499.2C203.4 514.5 180.6 514.5 168.3 499.2C116.1 435 0 279.4 0 192C0 85.96 85.96 0 192 0C298 0 384 85.96 384 192H384zM192 48C112.5 48 48 112.5 48 192C48 204.4 52.49 223.6 63.3 249.2C73.78 274 88.66 301.4 105.8 329.1C134.2 375.3 167.2 419.1 192 451.7C216.8 419.1 249.8 375.3 278.2 329.1C295.3 301.4 310.2 274 320.7 249.2C331.5 223.6 336 204.4 336 192C336 112.5 271.5 48 192 48V48z"/></svg>
